X:1
L:1/4
Q:1/4=120
M:3/4
K:G
|:""^A"" G/A/ |""G"" B G G |""Em"" G2 F/G/ |""Am"" A E E |""C"" E2 F/G/ |""D"" A3/2 B/ A |""D7"" F G A | 
""G"" B G G |""C"" G2 G/A/ |""G"" B G G |""Em"" G2 A/B/ |""Am"" c E B |""D"" A2 B/c/ |""G"" d B d | 
""Em"" g2""Em/D"" f |""C"" e3/2 d/ c |""G/D"" d2""D#dim"" c |""Em"" B3/2 A/ G |""Am"" A/ c3/2""D"" F |1""G"" G3- | 
""C"" G2 :|2""G"" G3 | z2 |]:""^B"" F/G/ |""D"" A F A |""Bm"" d2 ^c/d/ |""Em"" e B d |""A"" ^c2 d/e/ | 
""Bm"" f e f |""G"" g f3/2 d/ |""A"" e a""A#dim"" g |""Bm"" f2 d/^c/ |""G"" B A G |""D/F#"" A d3/2 D/ | 
""Em"" G F""A7"" E |""D"" D2 :|
